X:131
T: Haerzke, menj Haerzken, do faer iwerm Rech,
N: D0198
O: Europa, Suedosteuropa, Rumaenien, Siebenbuergen
R: Liebes - Lied
M: 3/4
L: 1/8
K: G
 |  |  |  | d2B3c | B2A2z
G | B2c2e2 | d4
fg | a2g3e | g2d4
c2A2c2 | B4
fg | a2g3e | g2d4
c2b2a2 | g6

